as/logo (1).svg

<svg xmlns="http://www.w3.org/2000/svg" width="1777" height="1069" fill="none"><path fill="#d5c780" d="M44.174 844.242.827 799.754a.5.5 0 0 1 .358-.849H276.23c.125 0 .246.047.338.132l48.48 44.488a.5.5 0 0 1-.338.868H44.532a.5.5 0 0 1-.358-.151m307.287-4.393-45.752-40.068a.5.5 0 0 1 .33-.876h99.644a.5.5 0 0 1 .354.147l21.965 21.965a.5.5 0 0 1-.237.839l-75.859 18.103a.5.5 0 0 1-.445-.11m170.238 25.365-91.792-65.402a.5.5 0 0 1 .29-.907h224.029c.529 0 .696.714.222.948L522.21 865.255a.5.5 0 0 1-.511-.041M89.955 887.406l-21.718-21.161a.5.5 0 0 1 .349-.858h126.287c.128 0 .251.049.344.138l22.275 21.161a.5.5 0 0 1-.344.862H90.304a.5.5 0 0 1-.349-.142m59.485 33.54-21.675-20.287a.5.5 0 0 1 .341-.864h105.285c.111 0 .219.036.306.105l26.122 20.286a.5.5 0 0 1-.306.894H149.782a.5.5 0 0 1-.342-.134m45.485 39.932-27.013-27.576a.5.5 0 0 1 .357-.85h131.879c.121 0 .238.044.329.124l31.515 27.576a.5.5 0 0 1-.329.876H195.282a.5.5 0 0 1-.357-.15m84.791-55.397-56.221-39.184a.5.5 0 0 1 .286-.91h120.727c.097 0 .192.029.274.082l16.812 11.024a.5.5 0 0 1-.111.89l-81.318 28.16a.5.5 0 0 1-.449-.062m59.175 39.627-37.816-29.287a.5.5 0 0 1 .147-.869l81.652-27.313a.5.5 0 0 1 .488.099l30.664 26.972a.5.5 0 0 1-.146.84l-74.498 29.627a.5.5 0 0 1-.491-.069m93.582-39.674-62.235-49.042a.5.5 0 0 1 .187-.877l76.948-19.524a.5.5 0 0 1 .399.068l54.187 35.838a.5.5 0 0 1-.061.868l-68.901 32.728a.5.5 0 0 1-.524-.059m-21.918 90.36-55.307-42.411a.5.5 0 0 1 .107-.856l73.016-31.334a.5.5 0 0 1 .494.057l42.367 31.203a.5.5 0 0 1-.008.811l-60.076 42.542a.5.5 0 0 1-.593-.012m111.074-115.086-67.835 34.205a.5.5 0 0 0-.102.824l33.994 29.423a.5.5 0 0 0 .327.122h63.722a.5.5 0 0 0 .391-.189l38.571-48.57a.5.5 0 0 0-.392-.811h-52.126a.5.5 0 0 1-.344-.136l-15.638-14.785a.5.5 0 0 0-.568-.083m-92.491 123.112 58.549-42.69c.09-.066.2-.1.312-.096l112.19 4.059a.5.5 0 0 1 .482.499v6.166a.5.5 0 0 1-.329.47l-146.936 53.432a.49.49 0 0 1-.501-.1l-23.803-20.97a.49.49 0 0 1 .036-.77m290.793-204.915c-12.554-3.275-146.425 65.73-163.535 74.59-.464.24-.275.931.248.931h134.978c.193 0 .369.113.452.287 15.311 32.129 44.51 53.074 55.558 53.074h102.033a.43.43 0 0 0 .429-.282c1.956-4.792 28.223-69.305 29.627-81.654 1.457-12.821-16.336-36.544-35.251-46.929l-.066-.03c-21.384-7.971-32.238-6.205-50.206 3.403a.51.51 0 0 0-.255.337c-6.431 28.522-16.24 34.162-38.439 36.221-22.293-.74-22.16-36.449-35.573-39.948"/><path fill="#d5c780" d="M616.364 899.211h65.973c.169 0 .328.089.421.231 21.993 33.596 38.706 43.275 72.691 51.367a.6.6 0 0 1 .105.038c27.836 13.719 63.223 34.101 60.892 47.213-2.333 13.12-8.242 15.93-29.159 15.75-36.647-1.8-62.372-20.674-110.66-62.862a.5.5 0 0 0-.331-.126H575.475a.5.5 0 0 1-.389-.813l40.889-50.612a.5.5 0 0 1 .389-.186m1115.506-55.196 43.35-44.488a.5.5 0 0 0-.36-.848h-275.04a.5.5 0 0 0-.34.131L1451 843.298a.498.498 0 0 0 .33.868h280.18c.14 0 .27-.054.36-.151m-307.28-4.393 45.75-40.068c.34-.304.13-.875-.33-.875h-99.65c-.13 0-.26.052-.35.146l-21.97 21.965a.503.503 0 0 0 .24.84l75.86 18.102c.16.038.32-.003.45-.11m-170.24 25.365 91.79-65.402c.4-.282.2-.906-.29-.906h-224.03c-.53 0-.7.713-.22.947l132.24 65.402c.16.081.36.066.51-.041m431.74 22.192 21.72-21.161a.5.5 0 0 0-.35-.858h-126.29c-.12 0-.25.049-.34.138l-22.28 21.161c-.32.311-.1.862.35.862h126.84c.13 0 .26-.051.35-.142m-59.48 33.539 21.67-20.286a.5.5 0 0 0-.34-.865h-105.28c-.12 0-.22.037-.31.106l-26.12 20.286a.498.498 0 0 0 .3.894h109.73c.13 0 .25-.048.35-.135m-45.49 39.933 27.01-27.576c.31-.317.09-.85-.35-.85H1475.9a.5.5 0 0 0-.33.124l-31.52 27.576c-.34.304-.13.876.33.876h136.38a.5.5 0 0 0 .36-.15m-84.79-55.397 56.22-39.184c.4-.28.2-.91-.29-.91h-120.72c-.1 0-.19.029-.28.082l-16.81 11.024a.502.502 0 0 0 .11.89l81.32 28.16c.15.052.32.029.45-.062m-59.18 39.626 37.82-29.286a.498.498 0 0 0-.15-.869l-81.65-27.313a.5.5 0 0 0-.49.099l-30.66 26.972a.5.5 0 0 0 .15.84l74.49 29.627c.17.065.35.039.49-.07m-93.58-39.673 62.24-49.041a.502.502 0 0 0-.19-.877l-76.95-19.525a.5.5 0 0 0-.4.068l-54.18 35.838a.498.498 0 0 0 .06.868l68.9 32.728c.17.082.37.059.52-.059m21.92 90.36 55.31-42.411a.502.502 0 0 0-.11-.856l-73.02-31.334a.5.5 0 0 0-.49.057l-42.37 31.203a.5.5 0 0 0 .01.81l60.08 42.542c.18.127.42.122.59-.011m-111.07-115.086 67.83 34.205c.32.16.37.591.1.824l-33.99 29.423a.5.5 0 0 1-.33.122h-63.72c-.15 0-.3-.07-.39-.189l-38.57-48.57a.5.5 0 0 1 .39-.811h52.13c.13 0 .25-.049.34-.136l15.64-14.785a.5.5 0 0 1 .57-.083m92.49 123.109-58.55-42.687a.5.5 0 0 0-.31-.096l-112.19 4.058a.507.507 0 0 0-.49.5v6.166c0 .21.14.398.33.47l146.94 53.429c.17.06.36.03.5-.09l23.8-20.97a.5.5 0 0 0-.03-.78m-290.79-204.911c12.55-3.275 146.42 65.73 163.53 74.589.46.241.27.931-.25.931h-134.98a.5.5 0 0 0-.45.287c-15.31 32.129-44.51 53.074-55.56 53.074H926.381a.43.43 0 0 1-.429-.282c-1.956-4.792-28.223-69.305-29.627-81.654-1.457-12.821 16.336-36.544 35.251-46.928a.4.4 0 0 1 .066-.03c21.384-7.972 32.238-6.206 50.206 3.402a.52.52 0 0 1 .255.337c6.43 28.522 16.239 34.163 38.437 36.221 22.3-.739 22.16-36.448 35.58-39.947"/><path fill="#d5c780" d="M1159.68 898.984h-65.97c-.17 0-.33.089-.42.23-21.99 33.597-38.71 43.275-72.69 51.368a.6.6 0 0 0-.11.038c-27.834 13.718-63.222 34.101-60.89 47.212 2.332 13.118 8.242 15.928 29.159 15.748 36.651-1.8 62.371-20.671 110.661-62.86a.5.5 0 0 1 .33-.125h100.82c.42 0 .65-.487.39-.814l-40.89-50.611a.5.5 0 0 0-.39-.186"/><path fill="#8e823a" d="m863.211 948.398 24.164-72.492 26.707 72.492h74.082l-59.456 47.374 22.892 72.488-64.225-43.55-59.774 43.55 16.851-72.488-56.277-47.374z"/><path fill="#d5c780" d="M884.672 820.199c-11.433-20.918-39.947-38.193-41.988-39.947s1.581-14.325 0-24.489c-5.275-16.708-11.414-23.119-27.118-29.742-21.661-2.14-33.951-3.981-52.777 6.415 0 0 0-20.12 4.665-26.243s27.207-19.743 59.484-18.078c14.691-24.756 28.526-28.22 57.734-25.952 32.931 2.986 45.375 16.433 67.066 41.406 18.352 33.716 20.289 50.552 24.493 80.765-18.584-6.345-37.906-7.869-51.028-4.082s-28.007 18.941-40.531 39.947M628.37 775.905l-210.526-3.79c-41.657-58.949-57.515-90.561-79.604-145.795zM324.244 586.373l240.852 130.923-255.723-262.721c-2.245 50.277.528 79.064 14.871 131.798m-23.91-171.162 176.411 181.368-147.252-300.336c-20.158 41.677-26.147 67.941-29.159 118.968m84.852-237.936 44.613 277.3-91.559-194.781c13.954-35.866 24.666-53.573 46.946-82.519m82.52-95.932-66.191 68.523 28.284 162.123zM577.634.281l-92.142 55.985-17.786 130.632zm554.876 775.343 210.53-3.791c41.65-58.948 57.51-90.561 79.6-145.794zm304.13-189.532-240.86 130.923 255.73-262.721c2.24 50.277-.53 79.063-14.87 131.798m23.91-171.162-176.41 181.367 147.25-300.335c20.16 41.677 26.14 67.941 29.16 118.968m-84.86-237.936-44.61 277.3 91.56-194.781c-13.95-35.866-24.67-53.574-46.95-82.519m-82.52-95.933 66.19 68.524-28.28 162.122zM1183.25 0l92.14 55.985 17.78 130.631z"/><path fill="#d5c780" d="M692.822 755.218h42.708V636.584l13.558-27.794c-11.824-25.959-7.635-34.474 14.914-41.353-14.035-33.333-3.263-38.585 32.54-35.929-16.207-28.511-12.031-38.188 18.304-44.065l20.337-21.693h29.828c.554-6.536 4.745-10.168 8.813-10.168 4.067 0 9.005 4.122 8.813 10.168h34.573l12.881 18.982c26.641-.096 32.145 8.244 30.506 34.573 26.753 2.216 34.403 9.858 36.607 37.963 12.606 14.431 14.026 25.192 11.526 46.776l12.88 25.761v125.413h63.72V412.873H692.822zm-42.709-157.275v131.515h-6.779l-82.027-126.092v-8.135zm467.757 126.092h-10.17V587.774l73.9-16.947 2.71 7.457z"/><path fill="#d5c780" d="m1225.66 506.425-123.38 12.88-2.03-127.447-444.036 6.101v133.549L517.92 519.305v-46.776l132.193-83.383 458.267-6.779 117.28 65.758z"/><path fill="#d5c780" d="m490.808 429.127 5.423 8.813 149.819-99.653 500.3-6.779 96.94 59.656 4.74-8.813-98.29-59.656h-56.95l-92.871-50.843-254.894 2.711-82.027 54.911h-22.372l-40.674 27.116z"/><path fill="#d5c780" d="M549.114 355.929h52.877l15.592-8.813-35.251-1.355 138.972-85.417 303.706-4.746 174.22 80.672-18.98 4.745 10.17 6.101 35.93-9.49-199.31-92.196-305.736 5.423z"/><path fill="#d5c780" d="M638.593 277.96v27.795l8.135-4.068v-17.626l98.975-67.791 267.097-2.034 114.57 42.031-.68 35.251 10.17 4.746.68-46.098-119.99-44.064-275.914 2.711z"/><path fill="#d5c780" d="m706.386 234.576-46.098 32.54c11.423-63.502 35.01-90.711 99.653-128.125 51.942-23.105 117.957-24.407 125.414-24.405s84.312 4.678 130.835 24.405c70.96 32.728 84.73 57.588 99.65 104.398l-43.38-15.592c-32.5-68.183-146.431-105.749-187.105-106.432-40.675-.683-157.756 40.348-178.969 113.211"/><path fill="#d5c780" d="M888.744 121.39c-58.978 2.044-110.665 29.876-122.701 88.806h-9.491c14.496-65.361 55.588-95.585 132.192-96.263s120.526 30.942 130.156 92.873h-8.81c-10.985-52.658-62.367-87.461-121.346-85.416"/><path fill="#d5c780" d="M855.524 116.621h8.813c5.343-8.172 9.917-11.169 22.371-12.203 13.333 1.36 17.018 4.778 21.693 12.203h11.524c-3.359-6.781-5.431-10.3-11.524-12.203-3.997-8.268-7.281-11.323-13.558-12.202-.42-19.065-.983-29.752-3.39-48.81h-8.813c-3.642 18.826-4.397 29.579-5.423 48.81-6.82 2.621-9.486 5.478-12.88 12.202-7.479 3.648-8.66 6.503-8.813 12.203"/></svg>

<svg width="1777" height="1069" viewBox="0 0 1777 1069" fill="none" xmlns="http://www.w3.org/2000/svg">
<path d="M44.1742 844.242L0.826851 799.754C0.518282 799.437 0.742646 798.905 1.18481 798.905H276.231C276.356 798.905 276.477 798.952 276.569 799.037L325.049 843.525C325.385 843.833 325.167 844.393 324.711 844.393H44.5322C44.3974 844.393 44.2683 844.338 44.1742 844.242Z" fill="#D5C780"/>
<path d="M351.461 839.849L305.709 799.781C305.362 799.477 305.577 798.905 306.039 798.905H405.683C405.816 798.905 405.943 798.958 406.037 799.052L428.002 821.017C428.279 821.293 428.145 821.766 427.765 821.856L351.906 839.959C351.749 839.997 351.583 839.956 351.461 839.849Z" fill="#D5C780"/>
<path d="M521.699 865.214L429.907 799.812C429.511 799.53 429.711 798.905 430.197 798.905H654.226C654.755 798.905 654.922 799.619 654.448 799.853L522.21 865.255C522.045 865.336 521.849 865.321 521.699 865.214Z" fill="#D5C780"/>
<path d="M89.9551 887.406L68.2372 866.245C67.916 865.932 68.1376 865.387 68.586 865.387H194.873C195.001 865.387 195.124 865.436 195.217 865.525L217.492 886.686C217.819 886.997 217.599 887.548 217.148 887.548H90.3039C90.1736 887.548 90.0484 887.497 89.9551 887.406Z" fill="#D5C780"/>
<path d="M149.44 920.946L127.765 900.659C127.434 900.35 127.653 899.795 128.106 899.795H233.391C233.502 899.795 233.61 899.831 233.697 899.9L259.819 920.186C260.195 920.478 259.989 921.08 259.513 921.08H149.782C149.655 921.08 149.533 921.032 149.44 920.946Z" fill="#D5C780"/>
<path d="M194.925 960.878L167.912 933.302C167.602 932.986 167.826 932.452 168.269 932.452H300.148C300.269 932.452 300.386 932.496 300.477 932.576L331.992 960.152C332.34 960.456 332.125 961.028 331.663 961.028H195.282C195.148 961.028 195.019 960.974 194.925 960.878Z" fill="#D5C780"/>
<path d="M279.716 905.481L223.495 866.297C223.094 866.017 223.292 865.387 223.781 865.387H344.508C344.605 865.387 344.7 865.416 344.782 865.469L361.594 876.493C361.941 876.721 361.875 877.248 361.483 877.383L280.165 905.543C280.014 905.595 279.847 905.572 279.716 905.481Z" fill="#D5C780"/>
<path d="M338.891 945.108L301.075 915.821C300.759 915.577 300.844 915.079 301.222 914.952L382.874 887.639C383.043 887.583 383.229 887.62 383.362 887.738L414.026 914.71C414.306 914.957 414.227 915.412 413.88 915.55L339.382 945.177C339.218 945.242 339.031 945.216 338.891 945.108Z" fill="#D5C780"/>
<path d="M432.473 905.434L370.238 856.392C369.913 856.136 370.023 855.617 370.425 855.515L447.373 835.991C447.51 835.957 447.654 835.981 447.772 836.059L501.959 871.897C502.284 872.111 502.249 872.598 501.898 872.765L432.997 905.493C432.825 905.575 432.622 905.552 432.473 905.434Z" fill="#D5C780"/>
<path d="M410.555 995.794L355.248 953.383C354.945 953.15 355.004 952.678 355.355 952.527L428.371 921.193C428.534 921.123 428.722 921.145 428.865 921.25L471.232 952.453C471.506 952.655 471.503 953.067 471.224 953.264L411.148 995.806C410.969 995.932 410.729 995.928 410.555 995.794Z" fill="#D5C780"/>
<path d="M521.629 880.708L453.794 914.913C453.476 915.073 453.423 915.504 453.692 915.737L487.686 945.16C487.777 945.239 487.893 945.282 488.013 945.282H551.735C551.887 945.282 552.031 945.213 552.126 945.093L590.697 896.523C590.957 896.195 590.723 895.712 590.305 895.712H538.179C538.051 895.712 537.928 895.663 537.835 895.576L522.197 880.791C522.044 880.646 521.817 880.613 521.629 880.708Z" fill="#D5C780"/>
<path d="M429.138 1003.82L487.687 961.13C487.777 961.064 487.887 961.03 487.999 961.034L600.189 965.093C600.458 965.103 600.671 965.323 600.671 965.592V971.758C600.671 971.968 600.54 972.156 600.342 972.228L453.406 1025.66C453.235 1025.72 453.042 1025.69 452.905 1025.56L429.102 1004.59C428.862 1004.38 428.879 1004 429.138 1003.82Z" fill="#D5C780"/>
<path d="M719.931 798.905C707.377 795.63 573.506 864.635 556.396 873.495C555.932 873.735 556.121 874.426 556.644 874.426H691.622C691.815 874.426 691.991 874.539 692.074 874.713C707.385 906.842 736.584 927.787 747.632 927.787H849.665C849.868 927.787 850.017 927.693 850.094 927.505C852.05 922.713 878.317 858.2 879.721 845.851C881.178 833.03 863.385 809.307 844.47 798.922C844.449 798.911 844.427 798.901 844.404 798.892C823.02 790.921 812.166 792.687 794.198 802.295C794.07 802.363 793.975 802.49 793.943 802.632C787.512 831.154 777.703 836.794 755.504 838.853C733.211 838.113 733.344 802.404 719.931 798.905Z" fill="#D5C780"/>
<path d="M616.364 899.211H682.337C682.506 899.211 682.665 899.3 682.758 899.442C704.751 933.038 721.464 942.717 755.449 950.809C755.485 950.818 755.521 950.831 755.554 950.847C783.39 964.566 818.777 984.948 816.446 998.06C814.113 1011.18 808.204 1013.99 787.287 1013.81C750.64 1012.01 724.915 993.136 676.627 950.948C676.536 950.868 676.417 950.822 676.296 950.822H575.475C575.054 950.822 574.822 950.335 575.086 950.009L615.975 899.397C616.07 899.28 616.213 899.211 616.364 899.211Z" fill="#D5C780"/>
<path d="M1731.87 844.015L1775.22 799.527C1775.53 799.21 1775.3 798.679 1774.86 798.679H1499.82C1499.69 798.679 1499.57 798.725 1499.48 798.81L1451 843.298C1450.66 843.606 1450.88 844.166 1451.33 844.166H1731.51C1731.65 844.166 1731.78 844.112 1731.87 844.015Z" fill="#D5C780"/>
<path d="M1424.59 839.622L1470.34 799.554C1470.68 799.25 1470.47 798.679 1470.01 798.679H1370.36C1370.23 798.679 1370.1 798.731 1370.01 798.825L1348.04 820.79C1347.77 821.067 1347.9 821.539 1348.28 821.63L1424.14 839.732C1424.3 839.77 1424.46 839.729 1424.59 839.622Z" fill="#D5C780"/>
<path d="M1254.35 864.987L1346.14 799.585C1346.54 799.303 1346.34 798.679 1345.85 798.679H1121.82C1121.29 798.679 1121.12 799.392 1121.6 799.626L1253.84 865.028C1254 865.109 1254.2 865.094 1254.35 864.987Z" fill="#D5C780"/>
<path d="M1686.09 887.179L1707.81 866.018C1708.13 865.705 1707.91 865.16 1707.46 865.16H1581.17C1581.05 865.16 1580.92 865.209 1580.83 865.298L1558.55 886.459C1558.23 886.77 1558.45 887.321 1558.9 887.321H1685.74C1685.87 887.321 1686 887.27 1686.09 887.179Z" fill="#D5C780"/>
<path d="M1626.61 920.718L1648.28 900.432C1648.61 900.122 1648.39 899.567 1647.94 899.567H1542.66C1542.54 899.567 1542.44 899.604 1542.35 899.673L1516.23 919.959C1515.85 920.251 1516.06 920.853 1516.53 920.853H1626.26C1626.39 920.853 1626.51 920.805 1626.61 920.718Z" fill="#D5C780"/>
<path d="M1581.12 960.651L1608.13 933.075C1608.44 932.758 1608.22 932.225 1607.78 932.225H1475.9C1475.78 932.225 1475.66 932.269 1475.57 932.349L1444.05 959.925C1443.71 960.229 1443.92 960.801 1444.38 960.801H1580.76C1580.9 960.801 1581.03 960.747 1581.12 960.651Z" fill="#D5C780"/>
<path d="M1496.33 905.254L1552.55 866.07C1552.95 865.79 1552.75 865.16 1552.26 865.16H1431.54C1431.44 865.16 1431.35 865.189 1431.26 865.242L1414.45 876.266C1414.11 876.494 1414.17 877.021 1414.56 877.156L1495.88 905.316C1496.03 905.368 1496.2 905.345 1496.33 905.254Z" fill="#D5C780"/>
<path d="M1437.15 944.88L1474.97 915.594C1475.29 915.35 1475.2 914.852 1474.82 914.725L1393.17 887.412C1393 887.356 1392.82 887.393 1392.68 887.511L1362.02 914.483C1361.74 914.73 1361.82 915.185 1362.17 915.323L1436.66 944.95C1436.83 945.015 1437.01 944.989 1437.15 944.88Z" fill="#D5C780"/>
<path d="M1343.57 905.207L1405.81 856.166C1406.13 855.909 1406.02 855.39 1405.62 855.289L1328.67 835.764C1328.54 835.73 1328.39 835.754 1328.27 835.832L1274.09 871.67C1273.76 871.885 1273.8 872.371 1274.15 872.538L1343.05 905.266C1343.22 905.348 1343.42 905.325 1343.57 905.207Z" fill="#D5C780"/>
<path d="M1365.49 995.567L1420.8 953.156C1421.1 952.923 1421.04 952.45 1420.69 952.3L1347.67 920.966C1347.51 920.896 1347.32 920.918 1347.18 921.023L1304.81 952.226C1304.54 952.428 1304.54 952.839 1304.82 953.036L1364.9 995.578C1365.08 995.705 1365.32 995.7 1365.49 995.567Z" fill="#D5C780"/>
<path d="M1254.42 880.481L1322.25 914.686C1322.57 914.846 1322.62 915.277 1322.35 915.51L1288.36 944.933C1288.27 945.012 1288.15 945.055 1288.03 945.055H1224.31C1224.16 945.055 1224.01 944.985 1223.92 944.866L1185.35 896.296C1185.09 895.968 1185.32 895.485 1185.74 895.485H1237.87C1238 895.485 1238.12 895.436 1238.21 895.349L1253.85 880.564C1254 880.419 1254.23 880.386 1254.42 880.481Z" fill="#D5C780"/>
<path d="M1346.91 1003.59L1288.36 960.903C1288.27 960.837 1288.16 960.803 1288.05 960.807L1175.86 964.865C1175.59 964.875 1175.37 965.096 1175.37 965.365V971.531C1175.37 971.741 1175.51 971.929 1175.7 972.001L1322.64 1025.43C1322.81 1025.49 1323 1025.46 1323.14 1025.34L1346.94 1004.37C1347.18 1004.16 1347.17 1003.78 1346.91 1003.59Z" fill="#D5C780"/>
<path d="M1056.12 798.679C1068.67 795.404 1202.54 864.409 1219.65 873.268C1220.11 873.509 1219.92 874.199 1219.4 874.199H1084.42C1084.23 874.199 1084.05 874.312 1083.97 874.486C1068.66 906.615 1039.46 927.56 1028.41 927.56H926.381C926.178 927.56 926.029 927.466 925.952 927.278C923.996 922.486 897.729 857.973 896.325 845.624C894.868 832.803 912.661 809.08 931.576 798.696C931.597 798.684 931.619 798.674 931.642 798.666C953.026 790.694 963.88 792.46 981.848 802.068C981.976 802.137 982.071 802.264 982.103 802.405C988.533 830.927 998.342 836.568 1020.54 838.626C1042.84 837.887 1042.7 802.178 1056.12 798.679Z" fill="#D5C780"/>
<path d="M1159.68 898.984H1093.71C1093.54 898.984 1093.38 899.073 1093.29 899.214C1071.3 932.811 1054.58 942.489 1020.6 950.582C1020.56 950.591 1020.53 950.603 1020.49 950.62C992.656 964.338 957.268 984.721 959.6 997.832C961.932 1010.95 967.842 1013.76 988.759 1013.58C1025.41 1011.78 1051.13 992.909 1099.42 950.72C1099.51 950.641 1099.63 950.595 1099.75 950.595H1200.57C1200.99 950.595 1201.22 950.108 1200.96 949.781L1160.07 899.17C1159.98 899.053 1159.83 898.984 1159.68 898.984Z" fill="#D5C780"/>
<path d="M863.211 948.398L887.375 875.906L914.082 948.398H988.164L928.708 995.772L951.6 1068.26L887.375 1024.71L827.601 1068.26L844.452 995.772L788.175 948.398H863.211Z" fill="#8E823A"/>
<path d="M884.672 820.199C873.239 799.281 844.725 782.006 842.684 780.252C840.643 778.497 844.265 765.927 842.684 755.763C837.409 739.055 831.27 732.644 815.566 726.021C793.905 723.881 781.615 722.04 762.789 732.436C762.789 732.436 762.789 712.316 767.454 706.193C772.119 700.07 794.661 686.45 826.938 688.115C841.629 663.359 855.464 659.895 884.672 662.163C917.603 665.149 930.047 678.596 951.738 703.569C970.09 737.285 972.027 754.121 976.231 784.334C957.647 777.989 938.325 776.465 925.203 780.252C912.082 784.039 897.196 799.193 884.672 820.199Z" fill="#D5C780"/>
<path d="M628.37 775.905L417.844 772.115C376.187 713.166 360.329 681.554 338.24 626.32L628.37 775.905Z" fill="#D5C780"/>
<path d="M324.244 586.373L565.096 717.296L309.373 454.575C307.128 504.852 309.901 533.639 324.244 586.373Z" fill="#D5C780"/>
<path d="M300.334 415.211L476.745 596.579L329.493 296.243C309.335 337.92 303.346 364.184 300.334 415.211Z" fill="#D5C780"/>
<path d="M385.186 177.275L429.799 454.575L338.24 259.794C352.194 223.928 362.906 206.221 385.186 177.275Z" fill="#D5C780"/>
<path d="M467.706 81.3427L401.515 149.866L429.799 311.989L467.706 81.3427Z" fill="#D5C780"/>
<path d="M577.634 0.28125L485.492 56.2661L467.706 186.898L577.634 0.28125Z" fill="#D5C780"/>
<path d="M1132.51 775.624L1343.04 771.833C1384.69 712.885 1400.55 681.272 1422.64 626.039L1132.51 775.624Z" fill="#D5C780"/>
<path d="M1436.64 586.092L1195.78 717.015L1451.51 454.294C1453.75 504.571 1450.98 533.357 1436.64 586.092Z" fill="#D5C780"/>
<path d="M1460.55 414.93L1284.14 596.297L1431.39 295.962C1451.55 337.639 1457.53 363.903 1460.55 414.93Z" fill="#D5C780"/>
<path d="M1375.69 176.994L1331.08 454.294L1422.64 259.513C1408.69 223.647 1397.97 205.939 1375.69 176.994Z" fill="#D5C780"/>
<path d="M1293.17 81.0614L1359.36 149.585L1331.08 311.707L1293.17 81.0614Z" fill="#D5C780"/>
<path d="M1183.25 0L1275.39 55.9849L1293.17 186.616L1183.25 0Z" fill="#D5C780"/>
<path d="M692.822 755.218H735.53V636.584L749.088 608.79C737.264 582.831 741.453 574.316 764.002 567.437C749.967 534.104 760.739 528.852 796.542 531.508C780.335 502.997 784.511 493.32 814.846 487.443L835.183 465.75H865.011C865.565 459.214 869.756 455.582 873.824 455.582C877.891 455.582 882.829 459.704 882.637 465.75H917.21L930.091 484.732C956.732 484.636 962.236 492.976 960.597 519.305C987.35 521.521 995 529.163 997.204 557.268C1009.81 571.699 1011.23 582.46 1008.73 604.044L1021.61 629.805V755.218H1085.33V412.873H692.822V755.218Z" fill="#D5C780"/>
<path d="M650.113 597.943V729.458H643.334L561.307 603.366V595.231L650.113 597.943Z" fill="#D5C780"/>
<path d="M1117.87 724.035H1107.7V587.774L1181.6 570.827L1184.31 578.284L1117.87 724.035Z" fill="#D5C780"/>
<path d="M1225.66 506.425L1102.28 519.305L1100.25 391.858L656.214 397.959V531.508L517.92 519.305V472.529L650.113 389.146L1108.38 382.367L1225.66 448.125V506.425Z" fill="#D5C780"/>
<path d="M490.808 429.127L496.231 437.94L646.05 338.287L1146.35 331.508L1243.29 391.164L1248.03 382.351L1149.74 322.695H1092.79L999.919 271.852L745.025 274.563L662.998 329.474H640.626L599.952 356.59L490.808 429.127Z" fill="#D5C780"/>
<path d="M549.114 355.929H601.991L617.583 347.116L582.332 345.761L721.304 260.344L1025.01 255.598L1199.23 336.27L1180.25 341.015L1190.42 347.116L1226.35 337.626L1027.04 245.43L721.304 250.853L549.114 355.929Z" fill="#D5C780"/>
<path d="M638.593 277.96V305.755L646.728 301.687V284.061L745.703 216.27L1012.8 214.236L1127.37 256.267L1126.69 291.518L1136.86 296.264L1137.54 250.166L1017.55 206.102L741.636 208.813L638.593 277.96Z" fill="#D5C780"/>
<path d="M706.386 234.576L660.288 267.116C671.711 203.614 695.298 176.405 759.941 138.991C811.883 115.886 877.898 114.584 885.355 114.586C892.812 114.588 969.667 119.264 1016.19 138.991C1087.15 171.719 1100.92 196.579 1115.84 243.389L1072.46 227.797C1039.96 159.614 926.029 122.048 885.355 121.365C844.68 120.682 727.599 161.713 706.386 234.576Z" fill="#D5C780"/>
<path d="M888.744 121.39C829.766 123.434 778.079 151.266 766.043 210.196H756.552C771.048 144.835 812.14 114.611 888.744 113.933C965.348 113.254 1009.27 144.875 1018.9 206.806H1010.09C999.105 154.148 947.723 119.345 888.744 121.39Z" fill="#D5C780"/>
<path d="M855.524 116.621H864.337C869.68 108.449 874.254 105.452 886.708 104.418C900.041 105.778 903.726 109.196 908.401 116.621H919.925C916.566 109.84 914.494 106.321 908.401 104.418C904.404 96.1502 901.12 93.095 894.843 92.2159C894.423 73.1514 893.86 62.4639 891.453 43.4062H882.64C878.998 62.2319 878.243 72.985 877.217 92.2159C870.397 94.8371 867.731 97.6942 864.337 104.418C856.858 108.066 855.677 110.921 855.524 116.621Z" fill="#D5C780"/>
</svg>
